X:1
T:Title
T:Coro Concierto
T:T II
C:Composer
L:1/8
Q:1/8=250
M:12/8
K:D
V:1 treble nm="Piano" snm="Pno."
V:1
"^Arturo" a3 d2 e fgf eBc | d2 z z2 z"^T II" D z z z2 z | A z2 z3 A z z z2 z | %3
w: (...tar, tra la gio- * ja\-e l'e- * sul-|tar.) Cie-|lo, ar-|
 D z z z2 z D z z z2 z | A z2 z3 A z z z2 z | D z2 z3 F z z z2 z | B z2 z3 F z z z2 z | %7
w: ri- di|a' vo-|ti mie-|i, be-|
 B z2 z3 A z z z2 z | d z2 z3 G z z z2 z | A z2 z3 A z z z2 z | D z z2 z8 | z12 | z12 | z12 | z12 | %15
w: ne- di-|ci\-a tan-|to a-|mor.|||||
 a3 d2 e fgf eBc | B2 z z3 D z z z2 z | A z2 z3 A z z z2 z | D z z z2 z D z z z2 z | %19
w: (...tar, m'è più ca- * ro\-il pal- * pi-|tar.) Cie-|lo ar-|ri- di|
 A z2 z3 A z z z2 z | D z2 z3 F z z z2 z | B, z2 z3 F z z z2 z | B z2 z3 A z z z2 z | %23
w: a' vo-|ti mie-|i, be-|ne- di-|
 d z2 z3 G z z z2 z | A z2 z3 A z z z2 z | D z z d2- d/c/ d3 d z2 | z2 z d2- d/c/ d3 d3 | %27
w: ci a|tan- to\-a-|mor, be- * ne- di- ci|a * * tan- to\-a-|
 A z z z2 z A z z z2 z | A z z z2 z A z z z2 z | D z z d2- d/c/ d3 d z z | z2 z d2- d/c/ d3 d3 | %31
w: mor, a|tan- to\-a-|mor, be- * ne- di- ci|a * * tan- to\-a-|
 A z z z2 z A z z z2 z | A z z z2 z A z z z2 z | D z z F z2 A, z z4 | D z z F z2 A, z z z2 z | %35
w: mor, a-|tan- to\-a-|mor, a- mor,|tan- to\-a- mor,|
 D z z F z z A, z z z2 z | F12- | F6 z2 z4 | z12 | z12 | z12 | z12 | %42
w: tan- to\-a- mor,|Ciel!||||||
[K:G][M:4/4] z4"^Tenores todos"[Q:3/8=70] G2 DB, | A2 FD B2 GD | c2 AF d2 BG | %45
w: Ve- di! le|fo- sche not- tur- ne *|spo- glie * dé cie- li|
 e2 cA F2 G3/2F/4G/4 | AD z2 G2 DB, | A2 FD B2 GD | c2 AF d2 BG | e2 cA F2 G3/2F/4G/4 | AD z2 z4 | %51
w: sve- ste l'im- men- sa * *|vol- ta: sem- bra\-u- na|ve- do- va che\-al- fin si|to- glie * i bru- ni|pan- ni ond' e- ra in- *|vol- ta.|
 z8 | z2 c2 B2 A2 | ^GE z2 z4 | eE z2 z4 | z8 | e4 e3 e | e3 d c3 A | G3 B d3 =f | e4 c2 z2 | %60
w: |Al- l'o- pra!\-al-|l'o- pra!|Da- gli||Chi del gi-|ta- * no i|gior- * ni ab-|bel- la?|
 e4 e3 e | e3 d c3 A | G3 B d3 =f | e2 c2 e2 z2 | c2 z2 d2 z2 | B z c z A z B z | %66
w: Chi del gi-|ta- * no i|gior- * ni ab-|bel- la, chi?|chi i|gior- ni\-ab- bel- *|
 E2 z2 z3/2 ^G/ A>B | c z c2 z3/2 B/ c>d | e z e2 z3/2 d/ e>=f | g6 =f3/2g/4f/4 | e2 z2 z4 | z8 | %72
w: la? Chi del gi-|ta- no i gior- ni\-ab-|bel- la? La zin- ga-|rel- * * *|la!||
 z8 | z4 B2 BB | GE z2 z4 | z4 z ege | B2 B2 B2 B2 | Be B2 z BBB | GE z2 z4 | z8 | z8 | z8 | z8 | %83
w: |Ver- sa- mi\-un|trat- to;|le- na\-e co-|rag- gio\-il cor- po\-e|l'a- ni- ma trag- gon dal|be- re.|||||
 z8 | z8 | z8 | z4 G2 DB, | A2 FD B2 GD | c2 AF d2 BG | e2 cA F2 G3/2F/4G/4 | AD z2 z4 | z8 | %92
w: |||Oh guar- da,|guar- * da! del so- le\-un|rag- gio * bril- la più|vi- vi- do nel tuo bie- *|chie- re!||
 z2 c2 B2 A2 | ^GE z2 z4 | z8 | z8 | e4 e3 e | e3 d c3 A | G3 B d3 =f | e4 c2 z2 | e4 e3 e | %101
w: Al- l'o- pra!\-al|l'o- pra!|||Chi del gi-|ta- * no i|gior- * ni ab-|bel- la?|Chi del gi-|
 e3 d c3 A | G3 B d3 =f | e2 c2 e2 z2 | c2 z2 d2 z2 | B z c z A z B z | E2 z2 z3/2 ^G/ A>B | %107
w: ta- * no i|gior- * ni ab-|bel- la, chi?|chi i|gior- ni\-ab- bel- *|la? La zin- ga-|
 c z c2 z3/2 B/ c>d | e z e2 z3/2 ^d/ e>=f | g6 =f3/2g/4f/4 | e2 z2 z4 | z8 | z8 | z8 | z8 | %115
w: rel- la, la zin- ga-|rel- la, la zin- ga-|rel- * * *|la!|||||
[K:F][M:3/8]"^Marie"[Q:3/8=70] ca>g | f2 z | z z"^Tenores todos" G/A/ | B2 B/c/ | d2 d/e/ | d z A | %121
w: (...u- niè- *|me!)|Le voi-|là, le voi-|là, le voi-|là, mor-|
 c2 G/A/ | B2 B/c/ | d2 d/e/ | f z A | c2 c/d/ | _e2 e/f/ | g2 g/_e/ | d2 z | f=ed | cAd | c2 B | %132
w: bleu! il est|là, il est|là, il est|là, cor-|bleu! Le voi-|là, le voi-|là, le vloi-|là|Le * *|beau Vingt u-|niè- *|
 A2 z | def | fFd | c3 | F z2 | z3 | z3 | z3 | z3 |"^Marie" ca>g | f2 z | %143
w: me|Le * *|beau Vingt u-|niè-|me!|||||(...u- niè- *|me!)|
 z z"^Tenores todos" G/A/ | B2 B/c/ | d2 d/e/ | f z A | c2 G/A/ | B2 B/c/ | d2 d/e/ | f z A | %151
w: Le voi-|là, le voi-|là, le voi-|là, mor-|bleu! il est|là, il est|là, il est|là, cor-|
 c2 c/d/ | _e2 e/f/ | g2 g/_e/ | d2 z | f=ed | cAd | c2 B | A2 z | def | fFd | c3 | Aff | fGG | %164
w: bleu! Le voi-|là, le voi-|là, le vloi-|là|Le * *|beau Vingt u-|niè- *|me|Le * *|beau Vingt u-|niè-|me! Le voi-|là, le voi-|
 Aff | fGG | A2 z | z3 | A3 | A3 | c3- | c3 | A2 z | z3 | z3 | z3 | z3 | %177
w: là, le voi-|là, le voi-|là,||vi-|ve|vi-||ve!|||||
[K:Eb][M:2/2][Q:1/4=65]"^\n" z4 z2"^Peregrinos" B2 |[M:3/4] e4 B2 | G4 (3GAB | B2 c2 B2 | %181
w: Be-|glückt darf|nun dich, * o|Hei- mat, ich|
 B2 A2 c2 | f4 e2 | d4 (3Bcd | e2 c2 B>G | G2 F2 B>c | c2 B2 c2 | c4 B>c | c2 B2 c2 | c4 c2 | %190
w: scha- uen und|grü- Ben|froh de- i- ne|lieb- * li- chen|Au- en; nun *|laB * ich|ruhn den *|Wan- * der-|stab, weil|
 B4 (3Bcd | e2 d2 c2 | B2{/d} c3 B | B4 z2 | z6 | z6 | z6 | z4 B2 | B4 =A>_A | A4 _D>_d | %200
w: Gott ge- * *|treu ich ge-|pil- * gert|hab!||||Durch|Sühn und *|BuB hab *|
 _d4 c>_c | _c4 _F>_f | _f4 e>=d | d4 e2 | _d2 _c2 _GA | B4 B2 | B4 =A>_A | A4 _D>_d | _d4 c>_c | %209
w: ich ver- *|söhnt den *|Her- ren, *|dem mein|Her- * ze *|fröhnt, der|mei- ne *|Reu mit *|Se- gen *|
 _c4 _F>_f | _f4 e>=d | d4 e2 | d2 c2 BA | G2 F z B2 | B4 B>c | d4 d2 | d4 d>e | f6- | f4 B2 | %219
w: krönt, den *|Her- ren, *|dem mein|Lied * er- *|tönt, * den|Her- ren, *|dem mein|Lied er- *|tönt!|* Der|
 e4 B2 | G4 (3GAB | B2 c2 B2 | B2 A2 c2 | f4 e2 | d4 (3Bcd | e2 c2 B>G | G2 F2 B>c | c2 B2 c2 | %228
w: Gna- de|Heil ist * dem|Bü- Ber be-|schie- den, er|geht einst|ein in * der|Se- * li- gen|Frie- den; vor *|Höll * und|
 c4 B>c | c2 B2 c2 | c4 c2 | B4 (3Bcd | e2 d2 c2 | B2{/d} c3 B | B4 z z3/4 e/4 | e4- ed | %236
w: Tod ist *|ihm * nicht|bang; drum|preis ich * *|Gott * mein|Le- * be-|lang! Hal-|le- * lu-|
 d4 z z3/4 g/4 | g4- gf | f4 e2 | d4 c2 | B4 B2 | e2 d2 c2 | B2 A2 G2 | F4 F2 | E4 z2 | z6 | z6 | %247
w: ja! Hal-|le- * lu-|ja in|E- wig-|keit, in|E- * *||* wig-|keit!|||
 z4 B2 | e4 B2 | G4 (3GAB | B2 c2 B2 | B2 A2 c2 | f4 e2 | d4 (3Bcd | e2 c2 B>G | G2 F2 B>c | %256
w: Be-|glückt darf|nun dich, * o|Hei- mat, ich|schau- en, und|grü- Ben|froh dei- * ne|lieb- * li- chen|Au- en! Nun *|
 c2 B2 c2 | c4 B>c | c2 B2 c2 | c4 z2 ||[K:Gb][M:4/4] z8 | z8 | z8 | z8 | %264
w: laB * ich|ruhn den *|Wan- * der-|stab!|||||
[K:F][M:12/8]"^Norma"[Q:1/4=50] d>c=B/c/ e>fc/A/ A>G^F/G/ =B>c_B/G/ | %265
w: (...bian- * te * sen- * za * nu- * be e sen- * za *|
 =F2 z"^Tenores II" F2- F/F/ A2- A/F/ F2- F/F/ | A2- A/F/ E2- E/F/ G2- G/F/ E2- E/D/ | %267
w: vel,) Ca- * sta Di- * va, * che\-i- nar-|gen- * ti que- * ste sa- * cre\-an- ti- * che|
 D2- D/C/ E2- E/D/ D2- D/C/ G2- G/F/ | F2- F/E/ G2- G/A/ c2- c/B/ A2- A/G/ | %269
w: pian- * te, a * noi vol- * gi\-il bel * sem-|bian- * te sen- * za nu- * be\-e sen- * za|
 F z z F2- F/F/ A2- A/F/ F2- F/F/ | A2- A/F/ E2- E/F/ G2- G/F/ E2- E/D/ | %271
w: vel. Ca- * sta Di- * va, che\-i- * nar-|gen- * ti que- * ste sa- * cre\-an- ti- * che|
 D2- D/C/ E2- E/D/ D2- D/C/ G2- G/F/ | F2- F/E/ G2- G/A/ c2- c/B/ A2- A/G/ | F z z z3 G6 | %274
w: pian- * te, a * noi vol- * gi\-il bel * sem-|bian- * te sen- * za nu- * be\-e sen- * za|vel, e|
 G6- G3 G3 | F3 z z8 | z12 | z12 | z12 | z12 |"^Norma"[Q:1/4=140] ^G3 A z2 F z2 z3 | %281
w: sen- * za|vel.|||||(...da- ce,) Di-|
 G z z z3 A z2 z3 | G z z2 z8 | c z z z3 c z2 z3 | c z z ^c z z =c z z ^c z2 | %285
w: va, spar-|gi\-in|ter- ra|quel- la pa- ce|
 d z z z3 B z z d z2 | c z z c z z B z z B z2 | A z z z3 G6 | G6 G2 z4 | c6- c3- c z c | c12- | %291
w: che re- *|gnar tu fai nel|ciel, tu|fa- i|nel * * *|ciel.|
 c2 z2 z8 | z12 | z12 | z12 ||[K:A][M:2/4][Q:1/4=40]"^Turandot IN QUESTA REGGIA" GA/A/ Bd | %296
w: ||||(...og- gi ri- vi- vi\-in...)|
 z3/4 C/4C/4C/4C/4C/4 C/>C/C/C/ | C/C/C/C/ F/F/G/G/ | A z z2 | z4 | z4 | z4 | z4 | %303
w: Fu quan- do\-il Re dei Tar- ta- ri le|set- te sue ban- die- re di- spie-|gò!|||||
[K:C][M:4/8]"^Turandot" D/D/ z/ C/D/D/C/C/ | DC(3D/D/D/E/>E/ |[K:A] CC z2 | z4 | z4 | z4 | z4 | %310
w: (...vo- ce!) Da se- co- li\-el- la|dor- me nel- la sua tom- ba\-e-|nor- me!|||||
[K:Ab][M:4/4]"^Turandot y Ppe" a>b c'>a e>a a>g | A2 B/c/B/c/ e2 f-f/ z/ | EE/E/ F>c cc z/ A/G/A/ | %313
w: (...nig- mi so- no tre, la mor- te\-è...)|Al Prin- ci- pe stra- nie- ro *|of- fri la pro- va\-ar- di- ta, o Tu- ran-|
 e2 f>E E2 z2 | z8 | z8 | z8 | z8 || %318
w: dot! Tu- ran- dot!|||||
[K:C][M:4/4]"^Piano""^Turandot PADRE AUGUSTO"[Q:1/4=80] _a2 ag eg _d2 | %319
w: |
 z3/2 _E/ E>[K:treble]_B B>_e e2 | _B3 B _c2 c2 | _c2 _B2 _A3 A | _B3 B _c2 c2 | _c2 _B2 _A4 | z8 | %325
w: |Die- ci mi- la|an- * ni al|no- stro\-Im- pe- ra-|to- * ror||
 z8 | z8 | z8 |"^Turandot" _b8 | z4 z3/2"^Tenores II" ^f/ f2- | f4- f z z2 | z8 | z8 | z8 || %334
w: |||(...mor!)|A- mor!|||||
[K:D][M:4/4] z def ed e>c |[M:2/4] B4 |[M:4/4] z efg fe f>d | c2 B2 c2 cc | d6 e>c | B4- BB d>B | %340
w: O so- le! nVi- ta!\-E- ter- ni-|tà!|Lu- ce del mon- do e a-|mo- * re! Ri- de\-e|can- ta nel|So- * le l'in- fi-|
 AFdc BA e>d | d6 B>B | d6 B>g | f8 | f8 | f4- f z z2 | z8 | z8 | z8 | z8 | %350
w: ni- ta no- * stra fe- li- ci-|tà! Glo- ria\-a|te! Glo- ria\-a|te!|Glo-|ria! *|||||
[K:Bb][M:3/8]"^Alfredo"[Q:1/4=92]"^Andante" dd/^c/d/e/ | =cc/=B/c/d/ | _B d2- | dfe | dd/^c/d/e/ | %355
w: (...più cal- * di *|ba- ci * a- *|vrà.) Ah!|* * li-|biam, a- * * *|
 =cc/=B/c/d/ | _B d2- | dfe | d{/e}d/^c/d/e/ | =c{/d}c/=B/c/d/ | _B2 z | z3 | z3 | z3 | %364
w: mor fra * * *|ca- li-|* ci più|cal- di * * *|ba- ci\-a- * * *|vrà.||||
 =c{/d}c/=B/c/d/ | _B B2- | B2 B, | G3- | GB,G | GB,G | G{_AG}^FG | B3- | B_AG | F{/G}F/=E/F/G/ | %374
w: (...lu- sin- * * *|ghier.) Ah!|* go-|dia-|* mo, la|taz- za, la|taz- * za\-e\-il|can-|* ti- co|la not- * te\-ab- *|
 F{/G}F/=E/F/G/ | F2 _E | B, z B, | G3- | GB,G | GB,G | G{AG}^FG | c3- | cB_A | G{/_A}G/^F/G/A/ | %384
w: bel- la * e\-il *|ri- *|so, in|que-|* sto, in|que- * sto|pa- * ra-|di-|* so ne|sco- pra * il *|
 =F{/G}F/=E/F/G/ | _E2 z | z3 | z3 | z3 | z cF | BBB | BBB | BBB | BBB | BBB | BBB | AAA | AAA | %398
w: nuo- vo * * *|dì.||||(...Ah go...)|Ah sì, go-|dia- mo, go-|dia- mo, go-|dia- mo, la|taz- za e\-il|can- ti- co|la not- te\-ab-|bel- la e\-il|
 BBB | BBB | BBB | BBB | B z B | B z B | BBB | BBB | BBB | A z A | B z =B | c z A | B z G | B z A | %412
w: ri- so, go-|dia- mo, go-|dia- mo, go-|dia- mo, in|que- sto|pa- ra-|di- so, ne|sco- ra, ne|sco- pra il|nuo- vo|dì, ne|sco- pra\-il|nuo- vo\-il|nuo- vo|
 B z =B | c z A | B z G | F z A | BAB | ABA | BAB | ABA | d3- | d3- | d3- | d3- | d z2 | z3 | z3 | %427
w: dì, ne|sco- pra\-il|nuo- vo,il|nuo- vo|dì, sì, ne|sco- pra, ne|sco- pra il|nuo- * vo|dì!|||||||
 z3 | z3 | z3 | z3 | z3 | z3 | z3 | z3 | z3 | z3 | z3 | z3 | z3 | z3 | z3 | z3 | z3 | z3 | z3 | %446
w: |||||||||||||||||||
 z3 | z3 | z3 | z3 | z3 | z3 | z3 | z3 | z3 | z3 | z3 | z3 | z3 | z3 | z3 | z3 | z3 | z3 | z3 | %465
w: |||||||||||||||||||
 z3 | z3 | z3 | z3 | z3 | z3 | z3 | z3 | z3 | z3 | z3 | z3 | z3 | z3 | z3 | z3 | z3 | z3 | z3 | %484
w: |||||||||||||||||||
 z3 | z3 | z3 | z3 | z3 | z3 | z3 | z3 | z3 | z3 | z3 | z3 | z3 | z3 | z3 | z3 | z3 | z3 | z3 | %503
w: |||||||||||||||||||
 z3 | z3 | z3 | z3 | z3 | z3 | z3 | z3 | z3 | z3 | z3 | z3 | z3 | z3 | z3 | z3 | z3 | z3 | z3 | %522
w: |||||||||||||||||||
 z3 | z3 | z3 | z3 | z3 | z3 | z3 | z3 | z3 | z3 | z3 | z3 | z3 | z3 | z3 | z3 | z3 | z3 | z3 | %541
w: |||||||||||||||||||
 z3 | z3 | z3 | z3 | z3 | z3 | z3 | z3 | z3 | z3 | z3 | z3 | z3 | z3 | z3 | z3 | z3 | z3 | z3 | %560
w: |||||||||||||||||||
 z3 | z3 | z3 | z3 | z3 | z3 | z3 | z3 | z3 | z3 | z3 | z3 | z3 | z3 | z3 | z3 | z3 | z3 | z3 | %579
w: |||||||||||||||||||
 z3 | z3 | z3 | z3 | z3 | z3 | z3 | z3 | z3 | z3 | z3 | z3 | z3 | z3 | z3 | z3 | z3 | z3 | z3 | %598
w: |||||||||||||||||||
 z3 | z3 | z3 | z3 | z3 | z3 | z3 | z3 | z3 | z3 | z3 | z3 | z3 | z3 | z3 | z3 | z3 | z3 | z3 | %617
w: |||||||||||||||||||
 z3 | z3 | z3 | z3 | z3 | z3 | z3 | z3 | z3 | z3 | z3 | z3 | z3 | z3 | z3 | z3 | z3 | z3 | z3 | %636
w: |||||||||||||||||||
 z3 | z3 | z3 | z3 | z3 | z3 | z3 | z3 | z3 | z3 | z3 | z3 | z3 | z3 | z3 | z3 | z3 | z3 | z3 | %655
w: |||||||||||||||||||
 z3 | z3 | z3 | z3 | z3 | z3 | z3 | z3 | z3 | z3 | z3 | z3 | z3 | z3 | z3 | z3 | z3 | z3 | z3 | %674
w: |||||||||||||||||||
 z3 | z3 | z3 | z3 | z3 | z3 | z3 | z3 | z3 | z3 | z3 | z3 | z3 | z3 | z3 | z3 | z3 | z3 | z3 | %693
w: |||||||||||||||||||
 z3 | z3 | z3 | z3 | z3 | z3 | z3 | z3 | z3 | z3 | z3 | z3 | z3 | z3 | z3 | z3 | z3 | z3 | z3 | %712
w: |||||||||||||||||||
 z3 | z3 | z3 | z3 | z3 | z3 | z3 | z3 | z3 | z3 | z3 | z3 | z3 | z3 | z3 | z3 | z3 | z3 | z3 | %731
w: |||||||||||||||||||
 z3 | z3 | z3 | z3 | z3 | z3 | z3 | z3 | z3 | z3 | z3 | z3 | z3 | z3 | z3 | z3 | z3 | z3 | z3 | %750
w: |||||||||||||||||||
 z3 | z3 | z3 | z3 | z3 | z3 | z3 | z3 | z3 | z3 | z3 | z3 | z3 | z3 | z3 | z3 | z3 | z3 | z3 | %769
w: |||||||||||||||||||
 z3 | z3 | z3 | z3 | z3 | z3 | z3 | z3 | z3 | z3 | z3 | z3 | z3 | z3 | z3 | z3 | z3 | z3 | z3 | %788
w: |||||||||||||||||||
 z3 | z3 | z3 | z3 | z3 | z3 | z3 | z3 | z3 | z3 | z3 | z3 | z3 | z3 | z3 | z3 | z3 | z3 | z3 | %807
w: |||||||||||||||||||
 z3 | z3 | z3 | z3 | z3 | z3 | z3 | z3 | z3 | z3 | z3 | z3 | z3 | z3 | z3 | z3 | z3 | z3 | z3 | %826
w: |||||||||||||||||||
 z3 | z3 | z3 | z3 | z3 | z3 | z3 | z3 | z3 | z3 | z3 | z3 | z3 | z3 | z3 | z3 | z3 | z3 | z3 | %845
w: |||||||||||||||||||
 z3 | z3 | z3 | z3 | z3 | z3 | z3 | z3 | z3 | z3 | z3 | z3 | z3 | z3 | z3 | z3 | z3 | z3 | z3 | %864
w: |||||||||||||||||||
 z3 | z3 | z3 | z3 | z3 | z3 | z3 | z3 | z3 | z3 | z3 | z3 | z3 | z3 | z3 | z3 | z3 | z3 | z3 | %883
w: |||||||||||||||||||
 z3 | z3 | z3 | z3 | z3 | z3 | z3 | z3 | z3 | z3 | z3 | z3 | z3 | z3 | z3 | z3 | z3 | z3 | z3 | %902
w: |||||||||||||||||||
 z3 | z3 | z3 | z3 | z3 | z3 | z3 | z3 | z3 | z3 | z3 | z3 | z3 | z3 | z3 | z3 | z3 | z3 | z3 | %921
w: |||||||||||||||||||
 z3 | z3 | z3 | z3 | z3 | z3 | z3 | z3 | z3 | z3 | z3 | z3 | z3 | z3 | z3 | z3 | z3 | z3 | z3 | %940
w: |||||||||||||||||||
 z3 | z3 | z3 | z3 | z3 | z3 | z3 | z3 | z3 | z3 | z3 | z3 | z3 | z3 | z3 | z3 | z3 | z3 | z3 | %959
w: |||||||||||||||||||
 z3 | z3 | z3 | z3 | z3 | z3 | z3 | z3 | z3 | z3 | z3 | z3 | z3 | z3 | z3 | z3 | z3 | z3 | z3 | %978
w: |||||||||||||||||||
 z3 | z3 | z3 | z3 | z3 | z3 | z3 | z3 | z3 | z3 | z3 | z3 | z3 | z3 | z3 | z3 | z3 | z3 | z3 | %997
w: |||||||||||||||||||
 z3 | z3 | z3 | z3 | z3 | z3 | z3 | z3 | z3 | z3 | z3 | z3 | z3 | z3 | z3 | z3 | z3 | z3 | z3 | %1016
w: |||||||||||||||||||
 z3 | z3 | z3 | z3 | z3 | z3 | z3 | z3 | z3 | z3 | z3 | z3 | z3 | z3 | z3 | z3 | z3 | z3 | z3 | %1035
w: |||||||||||||||||||
 z3 | z3 | z3 | z3 | z3 | z3 | z3 | z3 | z3 | z3 | z3 | z3 | z3 | z3 | z3 | z3 | z3 | z3 | z3 | %1054
w: |||||||||||||||||||
 z3 | z3 | z3 | z3 | z3 | z3 | z3 | z3 | z3 | z3 | z3 | z3 | z3 | z3 | z3 | z3 | z3 | z3 | z3 | %1073
w: |||||||||||||||||||
 z3 | z3 | z3 | z3 | z3 | z3 | z3 | z3 | z3 | z3 | z3 | z3 | z3 | z3 | z3 | z3 | z3 | z3 | z3 | %1092
w: |||||||||||||||||||
 z3 | z3 | z3 | z3 | z3 | z3 | z3 | z3 | z3 | z3 | z3 | z3 | z3 | z3 | z3 | z3 | z3 | z3 | z3 | %1111
w: |||||||||||||||||||
 z3 | z3 | z3 | z3 | z3 | z3 | z3 | z3 | z3 | z3 | z3 | z3 | z3 | z3 | z3 | z3 | z3 | z3 | z3 | %1130
w: |||||||||||||||||||
 z3 | z3 | z3 | z3 | z3 | z3 | z3 | z3 | z3 | z3 | z3 | z3 | z3 | z3 | z3 | z3 | z3 | z3 | z3 | %1149
w: |||||||||||||||||||
 z3 | z3 | z3 | z3 | z3 | z3 | z3 | z3 | z3 | z3 | z3 | z3 | z3 | z3 | z3 | z3 | z3 | z3 | z3 | %1168
w: |||||||||||||||||||
 z3 | z3 | z3 | z3 | z3 | z3 | z3 | z3 | z3 | z3 | z3 | z3 | z3 | z3 | z3 | z3 | z3 | z3 | z3 | %1187
w: |||||||||||||||||||
 z3 | z3 | z3 | z3 | z3 | z3 | z3 | z3 | z3 | z3 | z3 | z3 | z3 | z3 | z3 | z3 | z3 | z3 | z3 | %1206
w: |||||||||||||||||||
 z3 | z3 | z3 | z3 | z3 | z3 | z3 | z3 | z3 | z3 | z3 | z3 | z3 | z3 | z3 | z3 | z3 | z3 | z3 | %1225
w: |||||||||||||||||||
 z3 | z3 | z3 | z3 | z3 | z3 | z3 | z3 | z3 | z3 | z3 | z3 | z3 | z3 | z3 | z3 | z3 | z3 | z3 | %1244
w: |||||||||||||||||||
 z3 | z3 | z3 | z3 | z3 | z3 | z3 | z3 | z3 | z3 | z3 | z3 | z3 | z3 | z3 | z3 | z3 | z3 | z3 | %1263
w: |||||||||||||||||||
 z3 | z3 | z3 | z3 | z3 | z3 | z3 | z3 | z3 | z3 | z3 | z3 | z3 | z3 | z3 | z3 | z3 | z3 | z3 | %1282
w: |||||||||||||||||||
 z3 | z3 | z3 | z3 | z3 | z3 | z3 | z3 | z3 | z3 | z3 | z3 | z3 | z3 | z3 | z3 | z3 | z3 | z3 | %1301
w: |||||||||||||||||||
 z3 | z3 | z3 | z3 | z3 | z3 | z3 | z3 | z3 | z3 | z3 | z3 | z3 | z3 | z3 | z3 | z3 | z3 | z3 | %1320
w: |||||||||||||||||||
 z3 | z3 | z3 | z3 | z3 | z3 | z3 | z3 | z3 | z3 | z3 | z3 | z3 | z3 | z3 | z3 | z3 | z3 | z3 | %1339
w: |||||||||||||||||||
 z3 | z3 | z3 | z3 | z3 | z3 | z3 | z3 | z3 | z3 | z3 | z3 | z3 | z3 | z3 | z3 | z3 | z3 | z3 | %1358
w: |||||||||||||||||||
 z3 | z3 | z3 | z3 | z3 | z3 | z3 | z3 | z3 | z3 | z3 | z3 | z3 | z3 | z3 | z3 | z3 | z3 | z3 | %1377
w: |||||||||||||||||||
 z3 | z3 | z3 | z3 | z3 | z3 | z3 | z3 | z3 | z3 | z3 | z3 | z3 | z3 | z3 | z3 | z3 | z3 | z3 | %1396
w: |||||||||||||||||||
 z3 | z3 | z3 | z3 | z3 | z3 | z3 | z3 | z3 | z3 | z3 | z3 | z3 | z3 | z3 | z3 | z3 | z3 | z3 | %1415
w: |||||||||||||||||||
 z3 | z3 | z3 | z3 | z3 | z3 | z3 | z3 | z3 | z3 | z3 | z3 | z3 | z3 | z3 | z3 | z3 | z3 | z3 | %1434
w: |||||||||||||||||||
 z3 | z3 | z3 | z3 | z3 | z3 | z3 | z3 | z3 | z3 | z3 | z3 | z3 | z3 | z3 | z3 | z3 | z3 | z3 | %1453
w: |||||||||||||||||||
 z3 | z3 | z3 | z3 | z3 | z3 | z3 | z3 | z3 | z3 | z3 | z3 | z3 | z3 | z3 | z3 | z3 | z3 | z3 | %1472
w: |||||||||||||||||||
 z3 | z3 | z3 | z3 | z3 | z3 | z3 | z3 | z3 | z3 | z3 | z3 | z3 | z3 | z3 | z3 | z3 | z3 | z3 | %1491
w: |||||||||||||||||||
 z3 | z3 | z3 | z3 | z3 | z3 | z3 | z3 | z3 | z3 | z3 | z3 | z3 | z3 | z3 | z3 | z3 | z3 | z3 | %1510
w: |||||||||||||||||||
 z3 | z3 | z3 | z3 | z3 | z3 | z3 | z3 | z3 | z3 | z3 | z3 | z3 | z3 | z3 | z3 | z3 | z3 | z3 | %1529
w: |||||||||||||||||||
 z3 | z3 | z3 | z3 | z3 | z3 | z3 | z3 | z3 | z3 | z3 | z3 | z3 | z3 | z3 | z3 | z3 | z3 | z3 | %1548
w: |||||||||||||||||||
 z3 | z3 | z3 | z3 | z3 | z3 | z3 | z3 | z3 | z3 | z3 | z3 | z3 | z3 | z3 | z3 | z3 | z3 | z3 | %1567
w: |||||||||||||||||||
 z3 | z3 | z3 | z3 | z3 | z3 | z3 | z3 | z3 | z3 | z3 | z3 | z3 | z3 | z3 | z3 | z3 | z3 | z3 | %1586
w: |||||||||||||||||||
 z3 | z3 | z3 | z3 | z3 | z3 | z3 | z3 | z3 | z3 | z3 | z3 | z3 | z3 | z3 | z3 | z3 | z3 | z3 | %1605
w: |||||||||||||||||||
 z3 | z3 | z3 | z3 | z3 | z3 | z3 | z3 | z3 | z3 | z3 | z3 | z3 | z3 | z3 | z3 | z3 | z3 | z3 | %1624
w: |||||||||||||||||||
 z3 | z3 | z3 | z3 | z3 | z3 | z3 | z3 | z3 | z3 | z3 | z3 | z3 | z3 | z3 | z3 | z3 | z3 | z3 | %1643
w: |||||||||||||||||||
 z3 | z3 | z3 | z3 | z3 | z3 | z3 | z3 | z3 | z3 | z3 | z3 | z3 | z3 | z3 | z3 | z3 | z3 | z3 | %1662
w: |||||||||||||||||||
 z3 | z3 | z3 | z3 | z3 | z3 | z3 | z3 | z3 | z3 | z3 | z3 | z3 | z3 | z3 | z3 | z3 | z3 | z3 | %1681
w: |||||||||||||||||||
 z3 | z3 | z3 | z3 | z3 | z3 | z3 | z3 | z3 | z3 | z3 | z3 | z3 | z3 | z3 | z3 | z3 | z3 | z3 | %1700
w: |||||||||||||||||||
 z3 | z3 | z3 | z3 | z3 | z3 | z3 | z3 | z3 | z3 | z3 | z3 | z3 | z3 | z3 | z3 | z3 | z3 | z3 | %1719
w: |||||||||||||||||||
 z3 | z3 | z3 | z3 | z3 | z3 | z3 | z3 | z3 | z3 | z3 | z3 | z3 | z3 | z3 | z3 | z3 | z3 | z3 | %1738
w: |||||||||||||||||||
 z3 | z3 | z3 | z3 | z3 | z3 | z3 | z3 | z3 | z3 | z3 | z3 | z3 | z3 | z3 | z3 | z3 | z3 | z3 | %1757
w: |||||||||||||||||||
 z3 | z3 | z3 | z3 | z3 | z3 | z3 | z3 | z3 | z3 | z3 | z3 | z3 | z3 | z3 | z3 | z3 | z3 | z3 | %1776
w: |||||||||||||||||||
 z3 | z3 | z3 | z3 | z3 | z3 | z3 | z3 | z3 | z3 | z3 | z3 | z3 | z3 | z3 | z3 | z3 | z3 | z3 | %1795
w: |||||||||||||||||||
 z3 | z3 | z3 | z3 | z3 | z3 | z3 | z3 | z3 | z3 | z3 | z3 | z3 | z3 | z3 | z3 | z3 | z3 | z3 | %1814
w: |||||||||||||||||||
 z3 | z3 | z3 | z3 | z3 | z3 | z3 | z3 | z3 | z3 | z3 | z3 | z3 | z3 | z3 | z3 | z3 | z3 | z3 | %1833
w: |||||||||||||||||||
 z3 | z3 | z3 | z3 | z3 | z3 | z3 | z3 | z3 | z3 | z3 | z3 | z3 | z3 | z3 | z3 | z3 | z3 | z3 | %1852
w: |||||||||||||||||||
 z3 | z3 | z3 | z3 | z3 | z3 | z3 | z3 | z3 | z3 | z3 | z3 | z3 | z3 | z3 | z3 | z3 | z3 | z3 | %1871
w: |||||||||||||||||||
 z3 | z3 | z3 | z3 | z3 | z3 | z3 | z3 | z3 | z3 | z3 | z3 | z3 | z3 | z3 | z3 | z3 | z3 | z3 | %1890
w: |||||||||||||||||||
 z3 | z3 | z3 | z3 | z3 | z3 | z3 | z3 | z3 | z3 | z3 | z3 | z3 | z3 | z3 | z3 | z3 | z3 | z3 | %1909
w: |||||||||||||||||||
 z3 | z3 | z3 | z3 | z3 | z3 | z3 | z3 | z3 | z3 | z3 | z3 | z3 | z3 | z3 | z3 | z3 | z3 | z3 | %1928
w: |||||||||||||||||||
 z3 | z3 | z3 | z3 | z3 | z3 | z3 | z3 | z3 | z3 | z3 | z3 | z3 | z3 | z3 | z3 | z3 | z3 | z3 | %1947
w: |||||||||||||||||||
 z3 | z3 | z3 | z3 | z3 | z3 | z3 | z3 | z3 | z3 | z3 | z3 | z3 | z3 | z3 | z3 | z3 | z3 | z3 | %1966
w: |||||||||||||||||||
 z3 | z3 | z3 | z3 | z3 | z3 | z3 | z3 | z3 | z3 | z3 | z3 | z3 | z3 | z3 | z3 | z3 | z3 | z3 | %1985
w: |||||||||||||||||||
 z3 | z3 | z3 | z3 | z3 | z3 | z3 | z3 | z3 | z3 | z3 | z3 | z3 | z3 | z3 | z3 | z3 | z3 | z3 | %2004
w: |||||||||||||||||||
 z3 | z3 | z3 | z3 | z3 | z3 | z3 | z3 | z3 | z3 | z3 | z3 | z3 | z3 | z3 | z3 | z3 | z3 | z3 | %2023
w: |||||||||||||||||||
 z3 | z3 | z3 | z3 | z3 | z3 | z3 | z3 | z3 | z3 | z3 | z3 | z3 | z3 | z3 | z3 | z3 | z3 | z3 | %2042
w: |||||||||||||||||||
 z3 | z3 | z3 | z3 | z3 | z3 | z3 | z3 | z3 | z3 | z3 | z3 | z3 | z3 | z3 | z3 | z3 | z3 | z3 | %2061
w: |||||||||||||||||||
 z3 | z3 | z3 | z3 | z3 | z3 | z3 | z3 | z3 | z3 | z3 | z3 | z3 | z3 | z3 | z3 | z3 | z3 | z3 | %2080
w: |||||||||||||||||||
 z3 | z3 | z3 | z3 | z3 | z3 | z3 | z3 | z3 | z3 | z3 | z3 | z3 | z3 | z3 | z3 | z3 | z3 | z3 | %2099
w: |||||||||||||||||||
 z3 | z3 | z3 | z3 | z3 | z3 | z3 | z3 | z3 | z3 | z3 | z3 | z3 | z3 | z3 | z3 | z3 | z3 | z3 | %2118
w: |||||||||||||||||||
 z3 | z3 | z3 | z3 | z3 | z3 | z3 | z3 | z3 | z3 | z3 | z3 | z3 | z3 | z3 | z3 | z3 | z3 | z3 | %2137
w: |||||||||||||||||||
 z3 | z3 | z3 | z3 | z3 | z3 | z3 | z3 | z3 | z3 | z3 | z3 | z3 | z3 | z3 | z3 | z3 | z3 | z3 | %2156
w: |||||||||||||||||||
 z3 | z3 | z3 | z3 | z3 | z3 | z3 | z3 | z3 | z3 | z3 | z3 | z3 | z3 | z3 | z3 | z3 | z3 | z3 | %2175
w: |||||||||||||||||||
 z3 | z3 | z3 | z3 | z3 | z3 | z3 | z3 | z3 | z3 | z3 | z3 | z3 | z3 | z3 | z3 | z3 | z3 | z3 | %2194
w: |||||||||||||||||||
 z3 | z3 | z3 | z3 | z3 | z3 | z3 | z3 | z3 | z3 | z3 | z3 | z3 | z3 | z3 | z3 | z3 | z3 | z3 | %2213
w: |||||||||||||||||||
 z3 | z3 | z3 | z3 | z3 | z3 | z3 | z3 | z3 | z3 | z3 | z3 | z3 | z3 | z3 | z3 | z3 | z3 | z3 | %2232
w: |||||||||||||||||||
 z3 | z3 | z3 | z3 | z3 | z3 | z3 | z3 | z3 | z3 | z3 | z3 | z3 | z3 | z3 | z3 | z3 | z3 | z3 | %2251
w: |||||||||||||||||||
 z3 | z3 | z3 | z3 | z3 | z3 | z3 | z3 | z3 | z3 | z3 | z3 | z3 | z3 |] %2265
w: ||||||||||||||

